svgs/thin/mobile-screen.svg

<svg xmlns="http://www.w3.org/2000/svg" viewBox="0 0 384 512"><!--! Font Awesome Pro 6.6.0 by @fontawesome - https://fontawesome.com License - https://fontawesome.com/license (Commercial License) Copyright 2024 Fonticons, Inc. --><path d="M288 16c26.5 0 48 21.5 48 48l0 320L48 384 48 64c0-26.5 21.5-48 48-48l192 0zm48 384l0 48c0 26.5-21.5 48-48 48L96 496c-26.5 0-48-21.5-48-48l0-48 288 0zM96 0C60.7 0 32 28.7 32 64l0 384c0 35.3 28.7 64 64 64l192 0c35.3 0 64-28.7 64-64l0-384c0-35.3-28.7-64-64-64L96 0zm40 448c0 4.4 3.6 8 8 8l96 0c4.4 0 8-3.6 8-8s-3.6-8-8-8l-96 0c-4.4 0-8 3.6-8 8z"/></svg>

<svg xmlns="http://www.w3.org/2000/svg" viewBox="0 0 384 512"><!--! Font Awesome Pro 6.4.0 by @fontawesome - https://fontawesome.com License - https://fontawesome.com/license (Commercial License) Copyright 2023 Fonticons, Inc. --><path d="M288 16c26.5 0 48 21.5 48 48V384H48V64c0-26.5 21.5-48 48-48H288zm48 384v48c0 26.5-21.5 48-48 48H96c-26.5 0-48-21.5-48-48V400H336zM96 0C60.7 0 32 28.7 32 64V448c0 35.3 28.7 64 64 64H288c35.3 0 64-28.7 64-64V64c0-35.3-28.7-64-64-64H96zm40 448c0 4.4 3.6 8 8 8h96c4.4 0 8-3.6 8-8s-3.6-8-8-8H144c-4.4 0-8 3.6-8 8z"/></svg>
